src/lib/packages/icons/src/assets/filled/twitch.svg

<svg width="24" height="24" viewBox="0 0 24 24" fill="none" xmlns="http://www.w3.org/2000/svg">
<path d="M7.21002 3.00023L4 6.21024V17.7802H7.85999V20.9902L11.07 17.7802H14.21L20 11.9902V2.99023H7.21002V3.00023ZM18.71 11.3602L16.14 13.9302H13L10.43 16.5002V13.9302H7.85999V4.29022H18.72V11.3602H18.71ZM11.71 6.86023H13V10.7202H11.71V6.86023ZM16.21 6.86023V10.7202H14.92V6.86023H16.21Z" fill="currentColor"/>
</svg>

<svg xmlns="http://www.w3.org/2000/svg" width="24" height="24" fill="none"><path fill="currentColor" d="M7.21 3 4 6.21v11.57h3.86v3.21l3.21-3.21h3.14L20 11.99v-9H7.21V3Zm11.5 8.36-2.57 2.57H13l-2.57 2.57v-2.57H7.86V4.29h10.86v7.07h-.01Zm-7-4.5H13v3.86h-1.29V6.86Zm4.5 0v3.86h-1.29V6.86h1.29Z"/></svg>
